src/VoltLogoPurple.svg

<svg width="201" height="84" viewBox="0 0 201 84" fill="none" xmlns="http://www.w3.org/2000/svg">
<path d="M177.134 56.7643V34.9565H193.283V20.3506H177.134V0.664734L159.57 3.44812V57.0031C159.57 61.0083 159.938 64.6643 160.691 67.9622C161.435 71.26 162.749 74.0709 164.641 76.3858C166.524 78.7007 169.041 80.5104 172.183 81.8056C175.324 83.1009 179.293 83.7531 184.088 83.7531C187.864 83.7531 191.042 83.4408 193.632 82.8069C196.223 82.1823 198.584 81.429 200.706 80.5655L198.225 66.8966C196.572 67.5304 194.753 68.0173 192.741 68.3664C190.739 68.7154 188.791 68.8991 186.908 68.8991C182.977 68.8991 180.368 67.7968 179.072 65.6013C177.777 63.4059 177.134 60.4571 177.134 56.7643Z" fill="white"/>
<path d="M50.898 82.3384C54.1315 75.5131 57.3282 68.4031 60.4699 61.0175C63.6115 53.6318 66.597 46.3289 69.4263 39.0994C72.2557 31.8699 74.8553 24.962 77.2437 18.3756C79.6229 11.7707 81.7266 5.87326 83.5546 0.664734L63.979 0.664734C62.4449 5.42314 60.7363 10.5214 58.8715 15.9688C56.9975 21.4253 55.096 26.8635 53.1578 32.2741C51.2195 37.6939 49.3363 42.8749 47.5175 47.8354C45.6986 52.7959 44.0176 57.0674 42.4835 60.65C40.8576 57.0399 39.1489 52.7592 37.376 47.7987C35.5939 42.8382 33.7383 37.648 31.8001 32.2374C29.8618 26.8268 27.9511 21.3886 26.0771 15.9412C24.2031 10.4847 22.5037 5.39558 20.9788 0.664734L0.705078 0.664734C2.44125 5.8457 4.49894 11.7432 6.88733 18.348C9.27572 24.9528 11.8846 31.8608 14.7323 39.081C17.58 46.3013 20.5838 53.6043 23.7438 60.9807C26.9039 68.3572 30.1098 75.4764 33.3617 82.3384H50.898Z" fill="white"/>
<path d="M153.773 0.664734L136.209 3.44812V82.3384H153.773V0.664734Z" fill="white"/>
<path d="M131.305 52.1621C131.305 34.5891 117.057 20.3415 99.4841 20.3415C92.2362 20.3415 85.5579 22.7666 80.2116 26.836C78.7235 30.8136 77.1618 34.8923 75.5175 39.0811C73.1475 45.1256 70.6764 51.2343 68.0859 57.389C70.5937 72.4818 83.6931 83.9828 99.4841 83.9828C117.057 83.9828 131.305 69.7352 131.305 52.1621ZM115.376 52.1621C115.376 60.8614 108.321 67.9163 99.6218 67.9163C90.9226 67.9163 83.8677 60.8614 83.8677 52.1621C83.8677 43.4629 90.9226 36.408 99.6218 36.408C108.321 36.408 115.376 43.4629 115.376 52.1621Z" fill="white"/>
</svg>

<svg width="201" height="84" fill="none" xmlns="http://www.w3.org/2000/svg"><path d="M177.134 56.764V34.956h16.149V20.351h-16.149V.665L159.57 3.448v53.555c0 4.005.368 7.661 1.121 10.96.744 3.297 2.058 6.108 3.95 8.423 1.883 2.315 4.4 4.124 7.542 5.42 3.141 1.295 7.11 1.947 11.905 1.947 3.776 0 6.954-.312 9.544-.946 2.591-.625 4.952-1.378 7.074-2.242l-2.481-13.668c-1.653.633-3.472 1.12-5.484 1.47-2.002.348-3.95.532-5.833.532-3.931 0-6.54-1.102-7.836-3.298-1.295-2.195-1.938-5.144-1.938-8.837zM50.898 82.338a581.19 581.19 0 0 0 9.572-21.32 812.446 812.446 0 0 0 8.956-21.919 880.34 880.34 0 0 0 7.818-20.723c2.379-6.605 4.483-12.503 6.31-17.711H63.98a906.717 906.717 0 0 1-5.108 15.304 1313.289 1313.289 0 0 1-5.713 16.305c-1.939 5.42-3.822 10.6-5.64 15.561-1.82 4.96-3.5 9.232-5.035 12.815-1.625-3.61-3.334-7.89-5.107-12.851-1.782-4.96-3.638-10.151-5.576-15.562a1364.795 1364.795 0 0 1-5.723-16.296A851.243 851.243 0 0 1 20.98.665H.705a799.3 799.3 0 0 0 6.182 17.683 772.932 772.932 0 0 0 7.845 20.733 814.858 814.858 0 0 0 9.012 21.9 619.963 619.963 0 0 0 9.618 21.357h17.536zM153.773.665l-17.564 2.783v78.89h17.564V.665zm-22.468 51.497c0-17.573-14.248-31.82-31.82-31.82a31.714 31.714 0 0 0-19.273 6.494 815.838 815.838 0 0 1-4.695 12.245 799.052 799.052 0 0 1-7.431 18.308c2.508 15.093 15.607 26.594 31.398 26.594 17.573 0 31.821-14.248 31.821-31.82zm-15.929 0c0 8.7-7.055 15.754-15.754 15.754-8.7 0-15.754-7.055-15.754-15.754 0-8.7 7.055-15.754 15.754-15.754s15.754 7.055 15.754 15.754z" fill="#fff"/></svg>
